SVG/pencil.svg

<?xml version="1.0" encoding="utf-8"?>
<!-- Generated by IcoMoon.io -->
<!DOCTYPE svg PUBLIC "-//W3C//DTD SVG 1.1//EN" "http://www.w3.org/Graphics/SVG/1.1/DTD/svg11.dtd">
<svg version="1.1" xmlns="http://www.w3.org/2000/svg" xmlns:xlink="http://www.w3.org/1999/xlink" width="12" height="14" viewBox="0 0 12 14">
<path fill="#444444" d="M2.836 12l0.711-0.711-1.836-1.836-0.711 0.711v0.836h1v1h0.836zM6.922 4.75q0-0.172-0.172-0.172-0.078 0-0.133 0.055l-4.234 4.234q-0.055 0.055-0.055 0.133 0 0.172 0.172 0.172 0.078 0 0.133-0.055l4.234-4.234q0.055-0.055 0.055-0.133zM6.5 3.25l3.25 3.25-6.5 6.5h-3.25v-3.25zM11.836 4q0 0.414-0.289 0.703l-1.297 1.297-3.25-3.25 1.297-1.289q0.281-0.297 0.703-0.297 0.414 0 0.711 0.297l1.836 1.828q0.289 0.305 0.289 0.711z"></path>
</svg>

<svg xmlns="http://www.w3.org/2000/svg" viewBox="0 0 12 14"><path d="M2.836 12l.71-.71-1.835-1.837-.71.71V11h1v1h.836zm4.086-7.25q0-.172-.172-.172-.078 0-.133.055L2.383 8.867q-.055.055-.055.133 0 .172.172.172.078 0 .133-.055l4.234-4.234q.055-.055.055-.133zM6.5 3.25L9.75 6.5 3.25 13H0V9.75zm5.336.75q0 .414-.29.703L10.25 6 7 2.75l1.297-1.29q.28-.296.703-.296.414 0 .71.297l1.837 1.83q.29.304.29.71z" /></svg>
